SVG_Azure_All/SSH key.svg

<?xml version="1.0" encoding="UTF-8" standalone="no"?>
<!-- Generated by Microsoft Visio, SVG Export SSH key.svg Page-1 -->

<svg
   xmlns:dc="http://purl.org/dc/elements/1.1/"
   xmlns:cc="http://creativecommons.org/ns#"
   xmlns:rdf="http://www.w3.org/1999/02/22-rdf-syntax-ns#"
   xmlns:svg="http://www.w3.org/2000/svg"
   xmlns="http://www.w3.org/2000/svg"
   xmlns:sodipodi="http://sodipodi.sourceforge.net/DTD/sodipodi-0.dtd"
   xmlns:inkscape="http://www.inkscape.org/namespaces/inkscape"
   width="0.78736085in"
   height="0.70878887in"
   viewBox="0 0 56.689889 51.032816"
   xml:space="preserve"
   class="st4"
   version="1.1"
   id="svg46"
   sodipodi:docname="SSH key.svg"
   style="font-size:12px;overflow:visible;color-interpolation-filters:sRGB;fill:none;fill-rule:evenodd;stroke-linecap:square;stroke-miterlimit:3"
   inkscape:version="0.92.5 (2060ec1f9f, 2020-04-08)"><metadata
   id="metadata50"><rdf:RDF><cc:Work
       rdf:about=""><dc:format>image/svg+xml</dc:format><dc:type
         rdf:resource="http://purl.org/dc/dcmitype/StillImage" /></cc:Work></rdf:RDF></metadata><sodipodi:namedview
   pagecolor="#ffffff"
   bordercolor="#666666"
   borderopacity="1"
   objecttolerance="10"
   gridtolerance="10"
   guidetolerance="10"
   inkscape:pageopacity="0"
   inkscape:pageshadow="2"
   inkscape:window-width="640"
   inkscape:window-height="480"
   id="namedview48"
   showgrid="false"
   inkscape:zoom="1.4868082"
   inkscape:cx="37.795322"
   inkscape:cy="34.009626"
   inkscape:window-x="0"
   inkscape:window-y="0"
   inkscape:window-maximized="0"
   inkscape:current-layer="svg46" />
	<style
   type="text/css"
   id="style2">
	<![CDATA[
		.st1 {fill:url(#grad0-6);stroke:none;stroke-linecap:butt;stroke-width:34}
		.st2 {fill:url(#grad0-10);stroke:none;stroke-linecap:butt;stroke-width:34}
		.st3 {fill:#0078d4;fill-opacity:0.75;stroke:none;stroke-linecap:butt;stroke-width:34}
		.st4 {fill:none;fill-rule:evenodd;font-size:12px;overflow:visible;stroke-linecap:square;stroke-miterlimit:3}
	]]>
	</style>

	<defs
   id="Patterns_And_Gradients">
		<linearGradient
   id="grad0-6"
   x1="0"
   y1="91.655975"
   x2="48.244901"
   y2="91.655975"
   gradientTransform="scale(1.1750465,0.85103018)"
   gradientUnits="userSpaceOnUse">
			<stop
   offset="0"
   stop-color="#0078d4"
   stop-opacity="1"
   id="stop4" />
			<stop
   offset="0.815"
   stop-color="#5ea0ef"
   stop-opacity="1"
   id="stop6" />
		</linearGradient>
		<linearGradient
   id="grad0-10"
   x1="-0.0027433364"
   y1="60.705576"
   x2="32.420421"
   y2="60.705576"
   gradientTransform="scale(0.78228924,1.2782996)"
   gradientUnits="userSpaceOnUse">
			<stop
   offset="0"
   stop-color="#32bedd"
   stop-opacity="1"
   id="stop9" />
			<stop
   offset="0.115"
   stop-color="#3ccce9"
   stop-opacity="1"
   id="stop11" />
			<stop
   offset="0.29"
   stop-color="#47dbf5"
   stop-opacity="1"
   id="stop13" />
			<stop
   offset="0.505"
   stop-color="#4ee3fd"
   stop-opacity="1"
   id="stop15" />
			<stop
   offset="0.835"
   stop-color="#50e6ff"
   stop-opacity="1"
   id="stop17" />
		</linearGradient>
	</defs>
	<g
   id="g44"
   transform="translate(-34.000121,-33.997911)">
		<title
   id="title21">Page-1</title>
		<g
   id="group1133-1"
   transform="translate(34,-34.0157)">
			<title
   id="title23">SSH key</title>
			<g
   id="group1134-2">
				<title
   id="title25">Sheet.1134</title>
				<g
   id="shape1135-3"
   transform="translate(0,-9.98839)">
					<title
   id="title27">Sheet.1135</title>
					<path
   d="M 56.69,106.2 A 12.7425,13.0178 -180 0 0 45.64,93.7 16.0534,16.4002 -180 0 0 29.1,78.01 16.4705,16.8263 -180 0 0 13.36,88.99 15.1966,15.5249 -180 0 0 0,103.92 15.4261,15.7594 -180 0 0 15.96,119.05 c 0.48,0 0.95,-0.03 1.41,-0.06 h 25.85 a 2.65778,2.7152 -180 0 0 0.68,-0.11 12.8912,13.1697 -180 0 0 12.79,-12.68 z"
   class="st1"
   id="path29"
   inkscape:connector-curvature="0"
   style="fill:url(#grad0-6);stroke:none;stroke-width:34;stroke-linecap:butt" />
				</g>
				<g
   id="shape1136-7"
   transform="translate(15.6669)">
					<title
   id="title32">Sheet.1136</title>
					<path
   d="m 24,93.95 a 4.67537,4.77638 -180 0 0 0,-6.74 L 15.97,79 a 4.64627,4.74665 -180 0 0 -6.59,0 l -8.02,8.21 a 4.67537,4.77638 -180 0 0 0,6.74 l 6.68,6.85 a 1.29333,1.32127 0 0 1 0.38,0.95 v 12.71 a 1.59079,1.62516 -180 0 0 0.47,1.15 l 3.04,3.12 a 1.05083,1.07353 -180 0 0 1.49,0 l 2.95,-3.02 v -0.04 l 1.74,-1.78 a 0.607863,0.620995 -180 0 0 0,-0.87864 L 16.86,111.72 a 0.662829,0.677149 0 0 1 0,-0.95792 L 18.11,109.48 a 0.60463,0.617692 -180 0 0 0,-0.87864 L 16.86,107.32 a 0.662829,0.677149 0 0 1 0,-0.95792 L 18.11,105.08 a 0.611096,0.624298 -180 0 0 0,-0.87864 L 16.37,102.41 v -0.66 z M 12.68,80.98 a 2.65132,2.7086 0 1 1 -2.64,2.71 2.64162,2.69869 0 0 1 2.64,-2.71 z"
   class="st2"
   id="path34"
   inkscape:connector-curvature="0"
   style="fill:url(#grad0-10);stroke:none;stroke-width:34;stroke-linecap:butt" />
				</g>
				<g
   id="shape1137-11"
   transform="translate(21.9122,-4.19448)">
					<title
   id="title37">Sheet.1137</title>
					<path
   d="m 4.34,118.93 a 0.569063,0.581357 -180 0 0 0.969994,-0.44262 L 5.31,108.19 A 0.601396,0.614389 -180 0 0 5.048102,107.68131 0.569063,0.581357 -180 0 0 4.168641,108.19 L 4.17,118.49 a 0.601396,0.614389 -180 0 0 0.171366,0.44262 z M 0.71,94.15 h 11.78 a 0.711329,0.726697 0 0 1 0.711329,0.726697 L 13.2,95.01 a 0.711329,0.726697 0 0 1 -0.711329,0.726697 L 0.71,95.74 A 0.711329,0.726697 0 0 1 -0.001329,95.013303 L 0,94.88 a 0.714562,0.73 0 0 1 0.714562,-0.73 z m 0,2.59 h 11.78 a 0.711329,0.726697 0 0 1 0.711329,0.726697 L 13.2,97.6 a 0.714562,0.73 0 0 1 -0.714562,0.73 H 0.71 A 0.711329,0.726697 0 0 1 -0.001329,97.603303 L 0,97.47 a 0.714562,0.73 0 0 1 0.711329,-0.73 z"
   class="st3"
   id="path39"
   inkscape:connector-curvature="0"
   style="fill:#0078d4;fill-opacity:0.75;stroke:none;stroke-width:34;stroke-linecap:butt" />
				</g>
			</g>
		</g>
	</g>
</svg>

<?xml version="1.0" encoding="UTF-8" standalone="no"?>
<!DOCTYPE svg PUBLIC "-//W3C//DTD SVG 1.1//EN" "http://www.w3.org/Graphics/SVG/1.1/DTD/svg11.dtd">
<!-- Generated by Microsoft Visio, SVG Export SSH key.svg Page-1 -->
<svg xmlns="http://www.w3.org/2000/svg" xmlns:xlink="http://www.w3.org/1999/xlink" xmlns:ev="http://www.w3.org/2001/xml-events"
		width="1.73185in" height="1.65343in" viewBox="0 0 124.693 119.047" xml:space="preserve" color-interpolation-filters="sRGB"
		class="st4">
	<style type="text/css">
	<![CDATA[
		.st1 {fill:url(#grad0-6);stroke:none;stroke-linecap:butt;stroke-width:34}
		.st2 {fill:url(#grad0-10);stroke:none;stroke-linecap:butt;stroke-width:34}
		.st3 {fill:#0078d4;fill-opacity:0.75;stroke:none;stroke-linecap:butt;stroke-width:34}
		.st4 {fill:none;fill-rule:evenodd;font-size:12px;overflow:visible;stroke-linecap:square;stroke-miterlimit:3}
	]]>
	</style>

	<defs id="Patterns_And_Gradients">
		<linearGradient id="grad0-6" x1="0" y1="0" x2="1" y2="0" gradientTransform="rotate(-90 0.5 0.5)">
			<stop offset="0" stop-color="#0078d4" stop-opacity="1"/>
			<stop offset="0.815" stop-color="#5ea0ef" stop-opacity="1"/>
		</linearGradient>
		<linearGradient id="grad0-10" x1="0" y1="0" x2="1" y2="0" gradientTransform="rotate(-90 0.5 0.5)">
			<stop offset="0" stop-color="#32bedd" stop-opacity="1"/>
			<stop offset="0.115" stop-color="#3ccce9" stop-opacity="1"/>
			<stop offset="0.29" stop-color="#47dbf5" stop-opacity="1"/>
			<stop offset="0.505" stop-color="#4ee3fd" stop-opacity="1"/>
			<stop offset="0.835" stop-color="#50e6ff" stop-opacity="1"/>
		</linearGradient>
	</defs>
	<g>
		<title>Page-1</title>
		<g id="group1118-1" transform="translate(34,-34.0157)">
			<title>SSH key</title>
			<g id="group1119-2">
				<title>Sheet.1119</title>
				<g id="shape1120-3" transform="translate(0,-9.98839)">
					<title>Sheet.1120</title>
					<path d="M56.69 106.2 A12.7425 13.0178 -180 0 0 45.64 93.7 A16.0534 16.4002 -180 0 0 29.1 78.01 A16.4705 16.8263
								 -180 0 0 13.36 88.99 A15.1966 15.5249 -180 0 0 -0 103.92 A15.4261 15.7594 -180 0 0 15.96 119.05
								 C16.44 119.05 16.91 119.02 17.37 118.99 L43.22 118.99 A2.65778 2.7152 -180 0 0 43.9 118.88 A12.8912
								 13.1697 -180 0 0 56.69 106.2 Z" class="st1"/>
				</g>
				<g id="shape1121-7" transform="translate(15.6669,1.42109E-14)">
					<title>Sheet.1121</title>
					<path d="M24 93.95 A4.67537 4.77638 -180 0 0 24 87.21 L15.97 79 A4.64627 4.74665 -180 0 0 9.38 79 L1.36 87.21
								 A4.67537 4.77638 -180 0 0 1.36 93.95 L8.04 100.8 A1.29333 1.32127 0 0 1 8.42 101.75 L8.42 114.46
								 A1.59079 1.62516 -180 0 0 8.89 115.61 L11.93 118.73 A1.05083 1.07353 -180 0 0 13.42 118.73 L16.37
								 115.71 L16.37 115.67 L18.11 113.89 a0.607863 0.620995 -180 0 0 -2.84217E-14 -0.878642 L16.86 111.72
								 a0.662829 0.677149 0 0 1 -1.06581E-14 -0.957918 L18.11 109.48 a0.60463 0.617692 -180 0 0 0 -0.878642
								 L16.86 107.32 a0.662829 0.677149 0 0 1 -3.55271E-15 -0.957918 L18.11 105.08 a0.611096 0.624298 -180
								 0 0 -1.06581E-14 -0.878642 L16.37 102.41 L16.37 101.75 L24 93.95 ZM12.68 80.98 A2.65132 2.7086 0
								 1 1 10.04 83.69 A2.64162 2.69869 0 0 1 12.68 80.98 Z" class="st2"/>
				</g>
				<g id="shape1122-11" transform="translate(21.9122,-4.19448)">
					<title>Sheet.1122</title>
					<path d="M4.34 118.93 a0.569063 0.581357 -180 0 0 0.969994 -0.442624 L5.31 108.19 a0.601396 0.614389 -180 0 0
								 -0.261898 -0.508688 a0.569063 0.581357 -180 0 0 -0.879461 0.508688 L4.17 118.49 a0.601396 0.614389
								 -180 0 0 0.171366 0.442624 ZM0.71 94.15 L12.49 94.15 a0.711329 0.726697 0 0 1 0.711329 0.726697
								 L13.2 95.01 a0.711329 0.726697 0 0 1 -0.711329 0.726697 L0.71 95.74 a0.711329 0.726697 0 0 1 -0.711329
								 -0.726697 L0 94.88 a0.714562 0.73 0 0 1 0.714562 -0.73 L0.71 94.15 ZM0.71 96.74 L12.49 96.74 a0.711329
								 0.726697 0 0 1 0.711329 0.726697 L13.2 97.6 a0.714562 0.73 0 0 1 -0.714562 0.73 L0.71 98.33 a0.711329
								 0.726697 0 0 1 -0.711329 -0.726697 L0 97.47 a0.714562 0.73 0 0 1 0.711329 -0.73 Z" class="st3"/>
				</g>
			</g>
		</g>
	</g>
</svg>
